assets/svg/action_wallet_update.svg

<svg width="81" height="80" viewBox="0 0 81 80" fill="none" xmlns="http://www.w3.org/2000/svg">
<path d="M47.3352 64.5844L47.7789 66.1703L48.0852 67.2641C48.4117 68.4828 47.4945 69.6828 46.2289 69.6828H35.3008C33.9508 69.6828 32.8555 68.5875 32.8555 67.2375V66.6438C32.8555 63.6734 35.2633 61.2656 38.2336 61.2656H42.9602C44.9977 61.2656 46.7867 62.6219 47.3352 64.5844Z" fill="#E1EAF8"/>
<path d="M44.8469 8.7082C45.9719 8.7082 46.8875 7.79258 46.8875 6.66758C46.8875 5.54258 45.9719 4.62695 44.8469 4.62695H36.1562C35.0312 4.62695 34.1156 5.54258 34.1156 6.66758C34.1156 7.79258 35.0312 8.7082 36.1562 8.7082H44.8469ZM45.7937 6.66758C45.7937 7.18945 45.3687 7.61445 44.8469 7.61445H42.6391C43.2594 7.17383 43.7 6.50039 43.8375 5.72227H44.8469C45.3687 5.7207 45.7937 6.1457 45.7937 6.66758ZM31.5938 73.2254C31.2922 73.2254 31.0469 73.4707 31.0469 73.7723C31.0469 74.0738 31.2922 74.3191 31.5938 74.3191H49.4109C49.7125 74.3191 49.9578 74.0738 49.9578 73.7723C49.9578 73.4707 49.7125 73.2254 49.4109 73.2254H31.5938Z" fill="#9A9A9A"/>
<path d="M59.4953 58.0953C59.1937 58.0953 58.9484 58.3406 58.9484 58.6422V70.0953C58.9484 73.8766 55.8719 76.9531 52.0906 76.9531H28.9047C25.1234 76.9531 22.0469 73.8766 22.0469 70.0953V18.3359C22.0469 18.0344 21.8016 17.7891 21.5 17.7891C21.1984 17.7891 20.9531 18.0344 20.9531 18.3359V70.0953C20.9531 74.4797 24.5203 78.0469 28.9047 78.0469H52.0922C56.4766 78.0469 60.0437 74.4797 60.0437 70.0953V58.6422C60.0433 58.497 59.9853 58.358 59.8825 58.2555C59.7797 58.153 59.6405 58.0954 59.4953 58.0953ZM52.0922 1.95312H28.9047C24.5203 1.95312 20.9531 5.52031 20.9531 9.90469V14.6234C20.9531 14.925 21.1984 15.1703 21.5 15.1703C21.8016 15.1703 22.0469 14.925 22.0469 14.6234V9.90469C22.0469 6.12344 25.1234 3.04688 28.9047 3.04688H52.0922C55.8734 3.04688 58.95 6.12344 58.95 9.90469V18.2609C58.95 18.5625 59.1953 18.8078 59.4969 18.8078C59.7984 18.8078 60.0437 18.5625 60.0437 18.2609V9.90469C60.0422 5.52031 56.475 1.95312 52.0922 1.95312Z" fill="#9A9A9A"/>
<path d="M44.843 8.7082C45.968 8.7082 46.8836 7.79258 46.8836 6.66758C46.8836 5.54258 45.968 4.62695 44.843 4.62695H36.1523C35.0273 4.62695 34.1117 5.54258 34.1117 6.66758C34.1117 7.79258 35.0273 8.7082 36.1523 8.7082H44.843ZM45.7898 6.66758C45.7898 7.18945 45.3648 7.61445 44.843 7.61445H42.6352C43.2555 7.17383 43.6961 6.50039 43.8336 5.72227H44.843C45.3648 5.7207 45.7898 6.1457 45.7898 6.66758ZM31.043 73.7723C31.043 74.0738 31.2883 74.3191 31.5898 74.3191H49.407C49.7086 74.3191 49.9539 74.0738 49.9539 73.7723C49.9539 73.4707 49.7086 73.2254 49.407 73.2254H31.5898C31.2867 73.2254 31.043 73.4707 31.043 73.7723Z" fill="#9A9A9A"/>
<path d="M59 38C59 45.1797 53.1797 51 46 51C38.8203 51 33 45.1797 33 38C33 30.8203 38.8203 25 46 25C53.1797 25 59 30.8203 59 38Z" fill="#0166FF"/>
<path d="M48.332 38.3457C48.332 38.9756 48.0818 39.5797 47.6364 40.0251C47.191 40.4705 46.5869 40.7207 45.957 40.7207C45.3271 40.7207 44.7231 40.4705 44.2777 40.0251C43.8323 39.5797 43.582 38.9756 43.582 38.3457C43.582 37.7158 43.8323 37.1117 44.2777 36.6663C44.7231 36.2209 45.3271 35.9707 45.957 35.9707C46.5869 35.9707 47.191 36.2209 47.6364 36.6663C48.0818 37.1117 48.332 37.7158 48.332 38.3457Z" stroke="white" stroke-linecap="round" stroke-linejoin="round"/>
<path d="M52.3427 34.9741L52.0022 34.3804C51.745 33.9323 51.6159 33.7075 51.3966 33.618C51.1773 33.5286 50.9295 33.599 50.434 33.7407L49.5916 33.9782C49.275 34.0518 48.9425 34.0099 48.6543 33.8611L48.4215 33.7265C48.1735 33.5666 47.9829 33.3317 47.8777 33.0559L47.6473 32.3656C47.4953 31.908 47.4201 31.6792 47.2396 31.5486C47.0591 31.418 46.82 31.418 46.3402 31.418H45.5707C45.0918 31.418 44.8519 31.418 44.6714 31.5486C44.4909 31.6792 44.4157 31.908 44.2637 32.3656L44.0341 33.0559C43.9287 33.3318 43.7378 33.5667 43.4895 33.7265L43.2567 33.8611C42.9677 34.0099 42.636 34.0511 42.3194 33.9782L41.477 33.7407C40.9815 33.599 40.7329 33.5286 40.5144 33.618C40.2951 33.7075 40.166 33.9323 39.9087 34.3804L39.5683 34.9741C39.3269 35.3945 39.2057 35.6051 39.2295 35.8291C39.2532 36.0532 39.414 36.2329 39.7377 36.5939L40.4495 37.3927C40.6236 37.6136 40.7463 37.9983 40.7463 38.3451C40.7463 38.6918 40.6228 39.0766 40.4495 39.2974L39.737 40.0962C39.414 40.4572 39.2525 40.6369 39.2295 40.861C39.2065 41.085 39.3269 41.2956 39.5683 41.716L39.9087 42.3097C40.166 42.7578 40.2951 42.9826 40.5144 43.0721C40.7337 43.1616 40.9815 43.0911 41.477 42.9494L42.3194 42.7119C42.636 42.6383 42.9685 42.6802 43.2567 42.8291L43.4895 42.9636C43.7372 43.1228 43.928 43.3579 44.0333 43.6342L44.2637 44.3245C44.4157 44.7821 44.4909 45.0109 44.6714 45.1415C44.8519 45.2721 45.091 45.2721 45.5707 45.2721H46.3402C46.8192 45.2721 47.0591 45.2721 47.2396 45.1415C47.4201 45.0109 47.4953 44.7821 47.6473 44.3245L47.8777 43.6342C47.9824 43.3582 48.1731 43.1231 48.4215 42.9636L48.6543 42.8291C48.943 42.6801 49.2752 42.6385 49.5916 42.7119L50.434 42.9494C50.9295 43.0911 51.1781 43.1616 51.3966 43.0721C51.6159 42.9826 51.745 42.7578 52.0022 42.3097L52.3427 41.716C52.5841 41.2956 52.7052 41.085 52.6815 40.861C52.6577 40.6369 52.497 40.4572 52.1732 40.0962L51.4615 39.2974C51.2874 39.0758 51.1647 38.6918 51.1647 38.3451C51.1647 37.9991 51.2882 37.6136 51.4615 37.3927L52.174 36.5939C52.497 36.2329 52.6585 36.0532 52.6815 35.8291C52.7045 35.6051 52.5849 35.3945 52.3427 34.9741Z" stroke="white" stroke-linecap="round" stroke-linejoin="round"/>
<path d="M28.3755 38L32.277 43.0111L25.9865 43.8844L28.3755 38ZM46.3755 56L46.3755 55.45L46.3755 56ZM59.1034 50.7279L58.7145 50.339L58.7145 50.339L59.1034 50.7279ZM62.0073 45.7556C62.1423 45.4835 62.4723 45.3723 62.7444 45.5073C63.0165 45.6423 63.1277 45.9723 62.9927 46.2444L62.0073 45.7556ZM29.5854 42.7537C30.3901 45.5957 31.9108 48.2133 34.0365 50.339L33.2586 51.1168C30.9989 48.8571 29.3825 46.0745 28.527 43.0533L29.5854 42.7537ZM34.0365 50.339C37.309 53.6115 41.7474 55.45 46.3755 55.45L46.3755 56.55C41.4557 56.55 36.7374 54.5956 33.2586 51.1168L34.0365 50.339ZM46.3755 55.45C51.0035 55.45 55.442 53.6115 58.7145 50.339L59.4923 51.1168C56.0135 54.5956 51.2952 56.55 46.3755 56.55L46.3755 55.45ZM58.7145 50.339C60.0663 48.9872 61.1734 47.4365 62.0073 45.7556L62.9927 46.2444C62.1062 48.0313 60.9293 49.6798 59.4923 51.1168L58.7145 50.339Z" fill="#0166FF"/>
<path d="M63.6245 38L59.723 32.9889L66.0135 32.1156L63.6245 38ZM45.6245 20L45.6245 20.55L45.6245 20ZM32.8966 25.2721L33.2855 25.661L33.2855 25.661L32.8966 25.2721ZM29.9927 30.2444C29.8577 30.5165 29.5277 30.6277 29.2556 30.4927C28.9835 30.3577 28.8723 30.0277 29.0073 29.7556L29.9927 30.2444ZM62.4146 33.2463C61.6099 30.4043 60.0892 27.7867 57.9635 25.661L58.7414 24.8832C61.0011 27.1429 62.6175 29.9255 63.473 32.9467L62.4146 33.2463ZM57.9635 25.661C54.691 22.3885 50.2526 20.55 45.6245 20.55L45.6245 19.45C50.5443 19.45 55.2626 21.4044 58.7414 24.8832L57.9635 25.661ZM45.6245 20.55C40.9965 20.55 36.558 22.3885 33.2855 25.661L32.5077 24.8832C35.9865 21.4044 40.7048 19.45 45.6245 19.45L45.6245 20.55ZM33.2855 25.661C31.9337 27.0128 30.8266 28.5635 29.9927 30.2444L29.0073 29.7556C29.8938 27.9687 31.0707 26.3202 32.5077 24.8832L33.2855 25.661Z" fill="#0166FF"/>
</svg>

<svg xmlns="http://www.w3.org/2000/svg" width="81" height="80" fill="none"><path fill="#E1EAF8" d="m47.335 64.584.444 1.586.306 1.094a1.92 1.92 0 0 1-1.856 2.419H35.3a2.446 2.446 0 0 1-2.446-2.446v-.593a5.38 5.38 0 0 1 5.379-5.378h4.726a4.54 4.54 0 0 1 4.375 3.318"/><path fill="#9A9A9A" d="M44.847 8.708c1.125 0 2.04-.915 2.04-2.04s-.915-2.041-2.04-2.041h-8.69c-1.126 0-2.041.916-2.041 2.04 0 1.126.915 2.041 2.04 2.041zm.947-2.04a.95.95 0 0 1-.947.946h-2.208a2.95 2.95 0 0 0 1.198-1.892h1.01a.946.946 0 0 1 .947.946m-14.2 66.557a.547.547 0 0 0 0 1.094H49.41a.547.547 0 0 0 0-1.094z"/><path fill="#9A9A9A" d="M59.495 58.095a.547.547 0 0 0-.547.547v11.453a6.866 6.866 0 0 1-6.857 6.858H28.905a6.866 6.866 0 0 1-6.858-6.858v-51.76a.547.547 0 0 0-1.094 0v51.76c0 4.385 3.567 7.952 7.952 7.952h23.187c4.385 0 7.952-3.567 7.952-7.952V58.642a.55.55 0 0 0-.549-.547M52.092 1.953H28.905c-4.385 0-7.952 3.567-7.952 7.952v4.718a.547.547 0 0 0 1.094 0V9.905a6.866 6.866 0 0 1 6.858-6.858h23.187a6.866 6.866 0 0 1 6.858 6.858v8.356a.547.547 0 0 0 1.094 0V9.905c-.002-4.385-3.569-7.952-7.952-7.952"/><path fill="#9A9A9A" d="M44.843 8.708c1.125 0 2.04-.915 2.04-2.04s-.915-2.041-2.04-2.041h-8.69c-1.126 0-2.041.916-2.041 2.04 0 1.126.915 2.041 2.04 2.041zm.947-2.04a.95.95 0 0 1-.947.946h-2.208a2.95 2.95 0 0 0 1.199-1.892h1.009a.946.946 0 0 1 .947.946M31.043 73.772c0 .302.245.547.547.547h17.817a.547.547 0 0 0 0-1.094H31.59a.546.546 0 0 0-.547.547"/><path fill="#0166FF" d="M59 38c0 7.18-5.82 13-13 13s-13-5.82-13-13 5.82-13 13-13 13 5.82 13 13"/><path stroke="#fff" stroke-linecap="round" stroke-linejoin="round" d="M48.332 38.346a2.375 2.375 0 1 1-4.75 0 2.375 2.375 0 0 1 4.75 0"/><path stroke="#fff" stroke-linecap="round" stroke-linejoin="round" d="m52.343 34.974-.34-.594c-.258-.448-.387-.672-.606-.762-.22-.09-.468-.019-.963.123l-.842.237c-.317.074-.65.032-.938-.117l-.233-.134a1.4 1.4 0 0 1-.543-.671l-.23-.69c-.153-.458-.228-.687-.408-.817-.18-.131-.42-.131-.9-.131h-.77c-.478 0-.718 0-.899.13-.18.131-.255.36-.407.818l-.23.69c-.105.276-.296.51-.544.67l-.233.135c-.29.149-.621.19-.938.117l-.842-.237c-.495-.142-.744-.212-.963-.123-.219.09-.348.314-.605.762l-.34.594c-.242.42-.363.631-.34.855.024.224.185.404.509.765l.712.799c.174.22.296.605.296.952s-.123.732-.297.952l-.712.8c-.323.36-.485.54-.508.764s.098.435.34.855l.34.594c.257.448.386.673.605.762.22.09.467.02.963-.123l.842-.237c.317-.074.65-.032.938.117l.233.135c.247.159.438.394.543.67l.23.69c.153.458.228.687.408.818s.42.13.9.13h.77c.478 0 .718 0 .899-.13.18-.131.255-.36.407-.818l.23-.69c.105-.276.296-.51.544-.67l.233-.135c.289-.149.621-.19.938-.117l.842.237c.495.142.744.213.963.123s.348-.314.605-.762l.34-.594c.242-.42.363-.631.34-.855-.024-.224-.185-.404-.509-.765l-.712-.799c-.174-.221-.296-.605-.296-.952 0-.346.123-.731.297-.952l.712-.8c.323-.36.484-.54.508-.764.023-.224-.097-.434-.34-.855"/><path fill="#0166FF" d="m28.376 38 3.901 5.011-6.29.873zm18 18v-.55zm12.727-5.272-.389-.389zm2.904-4.972a.55.55 0 1 1 .986.488zm-32.422-3.002a17.45 17.45 0 0 0 4.451 7.585l-.777.778a18.55 18.55 0 0 1-4.732-8.064zm4.451 7.585a17.45 17.45 0 0 0 12.34 5.111v1.1a18.55 18.55 0 0 1-13.117-5.433zm12.34 5.111a17.45 17.45 0 0 0 12.339-5.111l.777.778a18.55 18.55 0 0 1-13.116 5.433zm12.339-5.111a17.4 17.4 0 0 0 3.292-4.583l.986.488a18.6 18.6 0 0 1-3.5 4.873zM63.625 38l-3.902-5.011 6.29-.873zm-18-18v.55zm-12.728 5.272.389.389zm-2.904 4.972a.55.55 0 1 1-.986-.488zm32.422 3.002a17.45 17.45 0 0 0-4.451-7.585l.777-.778a18.55 18.55 0 0 1 4.732 8.064zm-4.451-7.585a17.45 17.45 0 0 0-12.34-5.111v-1.1a18.55 18.55 0 0 1 13.117 5.433zm-12.34-5.111a17.45 17.45 0 0 0-12.339 5.111l-.777-.778a18.55 18.55 0 0 1 13.116-5.433zm-12.339 5.111a17.4 17.4 0 0 0-3.292 4.583l-.986-.488a18.6 18.6 0 0 1 3.5-4.873z"/></svg>
